!!!COM: Anon.
!!!OTL: Eu era uma modista
!!!OTL: Romanceiro Folclorico do Brasil
!!!CNT: Brasil
!!!OCY: Brasil
!!!ODT: <1971///
!!!PSR: Irmaos Vitale
!!!PSP: Sao Paulo, Brasil
!!!PDT: 1949///
!!!PPE: Rossini Tavares de Lima
!!!PPG: pages 47-48
!! Romance: Costureira Ou Modista
!! Place: Lins, Sao Paulo, Brasil
**kern
*clefG2
*k[]
*M2/4
*MM100
16c
16d
=
8.e
16g
8.c
16d
=
8c
4B
16d
16e
=
8.f
16a
8.d
16e
=
8d
4c
16g
16g
=
8b
4a
16e
16c
=
8.A
16f
8.e
16d
=
4.c
==
*-
